packages/design-system/src/icons/assets/ic_artist_non.svg

<svg width="90" height="90" viewBox="0 0 90 90" fill="none" xmlns="http://www.w3.org/2000/svg">
<rect width="90" height="90" rx="45" fill="white"/>
<path fill-rule="evenodd" clip-rule="evenodd" d="M59.5114 20.0756L51.6961 27.9098V17H37.6285V27.9098L30.0641 20.3271L20.1068 30.2891L27.459 37.6591H17V44.1005H38.1303C39.481 44.1005 40.8318 43.7717 41.8932 42.9206C44.5755 40.7927 45.0386 36.6919 45.0386 28.819C45.0386 36.6919 45.5017 40.7927 48.184 42.9206C49.2453 43.7523 50.6154 44.1005 51.9469 44.1005H72.9807V37.8332L72.807 37.6591H61.8463L69.4493 30.0377L59.4921 20.0563L59.5114 20.0756ZM73 45.8801H52.4101C51.5031 45.8801 50.5768 46.0542 49.7471 46.4218C45.6754 48.2594 45.0579 52.2055 45.0579 61.3938C45.0579 55.552 44.2088 51.5672 42.8194 49.0718C41.6809 47.0408 39.4618 45.8801 37.1268 45.8801H17V51.78H27.8835L20.1454 59.5368L30.1027 69.5181L37.6285 61.9741V73H51.6961V61.9741L59.685 69.9824H59.7236L69.6423 60.0204L61.4411 51.7993H73V45.8995V45.8801Z" fill="#EFF0F4"/>
</svg>

<svg xmlns="http://www.w3.org/2000/svg" width="90" height="90" fill="none"><rect width="90" height="90" fill="#fff" rx="45"/><path fill="#EFF0F4" fill-rule="evenodd" d="m59.511 20.076-7.815 7.834V17H37.63v10.91l-7.565-7.583-9.957 9.962 7.352 7.37H17V44.1h21.13c1.351 0 2.702-.328 3.763-1.18 2.682-2.127 3.146-6.228 3.146-14.101 0 7.873.463 11.974 3.145 14.102 1.061.831 2.431 1.18 3.763 1.18H72.98v-6.268l-.174-.174h-10.96l7.602-7.621-9.957-9.982zM73 45.88H52.41c-.907 0-1.833.174-2.663.542-4.072 1.837-4.69 5.784-4.69 14.972 0-5.842-.848-9.827-2.238-12.322-1.138-2.031-3.357-3.192-5.692-3.192H17v5.9h10.884l-7.739 7.757 9.958 9.981 7.526-7.544V73h14.067V61.974l7.989 8.008h.039l9.918-9.962-8.2-8.22H73z" clip-rule="evenodd"/></svg>
